pieces/shapes/qw.svg

<svg width="200" height="200" viewBox="0 0 200 200" fill="none" xmlns="http://www.w3.org/2000/svg">
<path fill-rule="evenodd" clip-rule="evenodd" d="M80 20V51.715L57.574 29.289L29.29 57.574L51.715 80H20V120H51.715L29.289 142.426L57.574 170.711L80 148.285V180H120V148.285L142.426 170.711L170.711 142.426L148.285 120H180V80H148.285L170.711 57.574L142.426 29.289L120 51.715V20H80ZM100 78.033C102.885 78.0329 105.741 78.601 108.407 79.7049C111.072 80.8088 113.493 82.4268 115.533 84.4667C117.573 86.5065 119.191 88.9282 120.295 91.5934C121.399 94.2587 121.967 97.1152 121.967 100C121.967 102.885 121.399 105.741 120.295 108.407C119.191 111.072 117.573 113.493 115.533 115.533C113.493 117.573 111.072 119.191 108.407 120.295C105.741 121.399 102.885 121.967 100 121.967C97.1152 121.967 94.2587 121.399 91.5934 120.295C88.9282 119.191 86.5065 117.573 84.4667 115.533C82.4268 113.493 80.8088 111.072 79.7049 108.407C78.601 105.741 78.0329 102.885 78.033 100C78.0329 97.1152 78.601 94.2587 79.7049 91.5934C80.8088 88.9282 82.4268 86.5065 84.4667 84.4667C86.5065 82.4268 88.9282 80.8088 91.5934 79.7049C94.2587 78.601 97.1152 78.0329 100 78.033V78.033Z" fill="white" stroke="black" stroke-width="6" stroke-linejoin="bevel"/>
</svg>

<svg height="200" viewBox="0 0 200 200" width="200" xmlns="http://www.w3.org/2000/svg"><filter id="a" height="150%" width="150%"><feGaussianBlur in="SourceAlpha" result="blur" stdDeviation="3"/><feColorMatrix in="blur" result="blurAlpha" values="2 0 0 0 0 0 2 0 0 0 0 0 2 0 0 0 0 0 0.5 0"/><feOffset dx="4.5" dy="4.5" in="blurAlpha" result="offsetBlur"/><feBlend in="SourceGraphic" in2="offsetBlur"/></filter><path d="M80 20v31.715L57.574 29.289 29.29 57.574 51.715 80H20v40h31.715l-22.426 22.426 28.285 28.285L80 148.285V180h40v-31.715l22.426 22.426 28.285-28.285L148.285 120H180V80h-31.715l22.426-22.426-28.285-28.285L120 51.715V20zm20 58.033A21.966 21.966 0 0 1 121.967 100 21.966 21.966 0 0 1 100 121.967 21.966 21.966 0 0 1 78.033 100 21.966 21.966 0 0 1 100 78.033z" fill="#fff" fill-rule="evenodd" stroke="#000" stroke-width="6" stroke-linejoin="bevel" filter="url(#a)"/></svg>
